dist/images/manual/card4.svg

<svg width="43" height="45" viewBox="0 0 43 45" fill="none" xmlns="http://www.w3.org/2000/svg">
<path d="M39.3224 27.6556H28.8106V22.8775C28.8106 21.3008 27.5205 20.0107 25.9437 20.0107H16.3876C14.8108 20.0107 13.5207 21.3008 13.5207 22.8775V23.8331H3.00894C1.43217 23.8331 0.14209 25.1232 0.14209 26.7V43.9011C0.14209 44.4267 0.572117 44.8567 1.09771 44.8567H41.2336C41.7592 44.8567 42.1892 44.4267 42.1892 43.9011V30.5225C42.1892 28.9457 40.8991 27.6556 39.3224 27.6556ZM26.8993 42.9455H15.4319V40.5564C15.4319 40.0308 15.0019 39.6008 14.4763 39.6008C13.9507 39.6008 13.5207 40.0308 13.5207 40.5564V42.9455H2.05332V26.7C2.05332 26.1744 2.48335 25.7444 3.00894 25.7444H13.5207V42.1045C13.5207 42.6301 13.9507 42.3625 14.4763 42.3625C15.0019 42.3625 15.4319 41.9325 15.4319 41.4069V22.8775C15.4319 22.3519 15.862 21.9219 16.3876 21.9219H25.9437C26.4693 21.9219 26.8993 22.3519 26.8993 22.8775V42.9455ZM40.278 42.9455H28.8106V29.5668H39.3224C39.8479 29.5668 40.278 29.9969 40.278 30.5225V42.9455Z" fill="#5B1A0D"/>
<path d="M41.2339 45H1.09798C0.495944 45 -0.000976562 44.5031 -0.000976562 43.9011V26.7C-0.000976562 25.0372 1.34644 23.6898 3.00921 23.6898H13.3776V22.8775C13.3776 21.2147 14.7251 19.8673 16.3878 19.8673H25.944C27.6068 19.8673 28.9542 21.2147 28.9542 22.8775V27.5122H39.3226C40.9854 27.5122 42.3328 28.8597 42.3328 30.5224V43.9011C42.3328 44.5031 41.8359 45 41.2339 45ZM3.00921 23.9765C1.5089 23.9765 0.285708 25.1996 0.285708 26.7V43.9011C0.285708 44.3502 0.648842 44.7133 1.09798 44.7133H41.2339C41.683 44.7133 42.0461 44.3502 42.0461 43.9011V30.5224C42.0461 29.0221 40.8229 27.7989 39.3226 27.7989H28.6675V22.8775C28.6675 21.3772 27.4443 20.154 25.944 20.154H16.3878C14.8875 20.154 13.6643 21.3772 13.6643 22.8775V23.9765H3.00921ZM40.4216 43.0888H28.6675V29.4235H39.3226C39.9247 29.4235 40.4216 29.9204 40.4216 30.5224V43.0888ZM28.9542 42.8021H40.1349V30.5224C40.1349 30.0733 39.7718 29.7102 39.3226 29.7102H28.9542V42.8021ZM27.043 43.0888H15.2889V42.1427C15.0882 42.3625 14.8015 42.5059 14.4766 42.5059C14.3428 42.5059 14.1995 42.525 14.0848 42.5441C13.9319 42.5727 13.7886 42.5919 13.6643 42.5632V43.0888H1.91026V26.7C1.91026 26.0979 2.40718 25.601 3.00921 25.601H13.6643V39.8206C13.865 39.6008 14.1517 39.4574 14.4766 39.4574C14.8015 39.4574 15.0882 39.6008 15.2889 39.8206V22.8775C15.2889 22.2755 15.7858 21.7785 16.3878 21.7785H25.944C26.546 21.7785 27.043 22.2755 27.043 22.8775V43.0888ZM15.5756 42.8021H26.7563V22.8775C26.7563 22.4284 26.3931 22.0652 25.944 22.0652H16.3878C15.9387 22.0652 15.5756 22.4284 15.5756 22.8775V42.8021ZM2.19694 42.8021H13.3776V25.8877H3.00921C2.56007 25.8877 2.19694 26.2508 2.19694 26.7V42.8021ZM13.6643 40.5564V42.1045C13.6643 42.2287 13.693 42.2574 13.7026 42.267C13.7408 42.3052 13.9032 42.2765 14.0466 42.2574C14.1804 42.2383 14.3237 42.2192 14.4862 42.2192C14.9353 42.2192 15.2984 41.856 15.2984 41.4069V40.5564C15.2984 40.1073 14.9353 39.7441 14.4862 39.7441C14.0275 39.7441 13.6643 40.1073 13.6643 40.5564Z" fill="#5B1A0D"/>
<path d="M22.2268 35.2023H22.1217V28.513C22.1217 28.169 21.9401 27.8536 21.6438 27.6816C21.3476 27.5096 20.9845 27.5096 20.6882 27.6816L19.6275 28.2932C19.1688 28.5608 19.0159 29.1437 19.2739 29.6024C19.465 29.9369 19.8377 30.1184 20.2009 30.0707V35.2023H20.0958C19.5702 35.2023 19.1401 35.6323 19.1401 36.1579C19.1401 36.6835 19.5702 37.1135 20.0958 37.1135H22.2172C22.7428 37.1135 23.1728 36.6835 23.1728 36.1579C23.1824 35.6323 22.7524 35.2023 22.2268 35.2023Z" fill="$red"/>
<path d="M24.606 6.31681H24.8862C27.6994 6.31681 29.999 4.4208 29.999 2.07981V1.00605C29.999 0.454656 29.4504 0 28.785 0H13.213C12.536 0 11.999 0.454656 11.999 1.00605V2.07981C11.999 4.41112 14.287 6.31681 17.1119 6.31681H17.392C17.7772 7.24547 18.6644 7.99033 19.785 8.29988V9.68319H18.4076C17.7305 9.68319 17.1936 10.1378 17.1936 10.6892V14.994C17.1936 15.5453 17.7422 16 18.4076 16H23.6021C24.2675 16 24.8161 15.5453 24.8161 14.994V10.6892C24.8161 10.1378 24.2675 9.68319 23.6021 9.68319H22.2247V8.29988C23.3453 7.98065 24.2325 7.24547 24.606 6.31681ZM22.3765 13.9879H19.6099V11.6953H22.3765V13.9879ZM27.571 2.07981C27.571 3.30834 26.3687 4.30472 24.8862 4.30472H24.8045V2.01209H27.571V2.07981ZM14.427 2.07981V2.01209H17.1936V4.29504H17.1119C15.6294 4.29504 14.427 3.29867 14.427 2.07981ZM19.6216 2.01209H22.3881V5.31076C22.3881 5.93954 21.7695 6.45224 21.0107 6.45224C20.2519 6.45224 19.6333 5.93954 19.6333 5.31076V2.01209H19.6216Z" fill="white"/>
</svg>

<svg width="43" height="45" fill="none" xmlns="http://www.w3.org/2000/svg"><path d="M39.322 27.656H28.811v-4.778a2.875 2.875 0 0 0-2.867-2.867h-9.556a2.875 2.875 0 0 0-2.867 2.867v.955H3.009A2.875 2.875 0 0 0 .142 26.7v17.201c0 .526.43.956.956.956h40.136c.525 0 .955-.43.955-.956V30.522a2.875 2.875 0 0 0-2.867-2.866zM26.9 42.946H15.432v-2.39a.958.958 0 0 0-.956-.955.958.958 0 0 0-.955.955v2.39H2.053V26.7c0-.526.43-.956.956-.956H13.52v16.36c0 .526.43.258.955.258.526 0 .956-.43.956-.955v-18.53c0-.525.43-.955.956-.955h9.556c.525 0 .955.43.955.956v20.068zm13.379 0H28.811v-13.38h10.511c.526 0 .956.43.956.957v12.423z" fill="#5B1A0D"/><path d="M41.234 45H1.098a1.105 1.105 0 0 1-1.099-1.099V26.7a3.01 3.01 0 0 1 3.01-3.01h10.369v-.813a3.01 3.01 0 0 1 3.01-3.01h9.556a3.01 3.01 0 0 1 3.01 3.01v4.635h10.369a3.01 3.01 0 0 1 3.01 3.01v13.38c0 .601-.497 1.098-1.1 1.098zM3.009 23.977A2.728 2.728 0 0 0 .286 26.7v17.201c0 .45.363.812.812.812h40.136c.449 0 .812-.363.812-.812V30.522c0-1.5-1.223-2.723-2.723-2.723H28.668v-4.921c0-1.5-1.224-2.724-2.724-2.724h-9.556a2.728 2.728 0 0 0-2.724 2.724v1.099H3.01zm37.413 19.112H28.668V29.424h10.655c.602 0 1.099.496 1.099 1.098V43.09zm-11.468-.287h11.18v-12.28a.812.812 0 0 0-.811-.812H28.954v13.092zm-1.911.287H15.289v-.946c-.2.22-.487.363-.812.363-.134 0-.277.019-.392.038-.153.029-.296.048-.42.02v.525H1.91V26.7c0-.602.497-1.099 1.1-1.099h10.654v14.22c.201-.22.488-.364.813-.364.325 0 .611.144.812.364V22.878c0-.602.497-1.1 1.099-1.1h9.556c.602 0 1.099.498 1.099 1.1v20.21zm-11.467-.287h11.18V22.878a.812.812 0 0 0-.812-.813h-9.556a.812.812 0 0 0-.812.813v19.924zm-13.38 0h11.182V25.888H3.009a.812.812 0 0 0-.812.812v16.102zm11.468-2.246v1.549c0 .124.029.152.039.162.038.038.2.01.344-.01.133-.019.277-.038.44-.038.448 0 .811-.363.811-.812v-.85a.812.812 0 0 0-.812-.813.814.814 0 0 0-.822.812z" fill="#5B1A0D"/><path d="M22.227 35.202h-.105v-6.689a.959.959 0 0 0-.478-.831.95.95 0 0 0-.956 0l-1.06.611a.966.966 0 0 0-.354 1.31.937.937 0 0 0 .927.468v5.131h-.105a.958.958 0 0 0-.956.956c0 .526.43.956.956.956h2.121c.526 0 .956-.43.956-.956a.944.944 0 0 0-.946-.956z" fill="$red"/><path d="M24.606 6.317h.28C27.7 6.317 30 4.42 30 2.08V1.006C29.999.455 29.45 0 28.785 0H13.213c-.677 0-1.214.455-1.214 1.006V2.08c0 2.331 2.288 4.237 5.113 4.237h.28c.385.928 1.272 1.673 2.393 1.983v1.383h-1.377c-.678 0-1.214.455-1.214 1.006v4.305c0 .551.548 1.006 1.214 1.006h5.194c.665 0 1.214-.455 1.214-1.006v-4.305c0-.551-.549-1.006-1.214-1.006h-1.377V8.3c1.12-.32 2.008-1.055 2.381-1.983zm-2.23 7.67H19.61v-2.292h2.767v2.293zM27.572 2.08c0 1.228-1.202 2.225-2.685 2.225h-.081V2.012h2.766v.068zm-13.144 0v-.068h2.767v2.283h-.082c-1.483 0-2.685-.996-2.685-2.215zm5.195-.068h2.766v3.299c0 .629-.619 1.141-1.377 1.141-.76 0-1.378-.512-1.378-1.141V2.012h-.011z" fill="#fff"/></svg>
